svgs/thin/user-plus.svg

<svg xmlns="http://www.w3.org/2000/svg" viewBox="0 0 640 512"><!-- Font Awesome Pro 6.0.0-alpha2 by @fontawesome - https://fontawesome.com License - https://fontawesome.com/license (Commercial License) --><path d="M224 256C294.695 256 352 198.691 352 128S294.695 0 224 0C153.312 0 96 57.309 96 128S153.312 256 224 256ZM224 16C285.758 16 336 66.242 336 128S285.758 240 224 240S112 189.758 112 128S162.242 16 224 16ZM274.666 304H173.334C77.611 304 0 381.602 0 477.332C0 496.477 15.521 512 34.666 512H413.334C432.479 512 448 496.477 448 477.332C448 381.602 370.398 304 274.666 304ZM413.334 496H34.666C24.373 496 16 487.625 16 477.332C16 390.578 86.58 320 173.334 320H274.666C361.42 320 432 390.578 432 477.332C432 487.625 423.627 496 413.334 496ZM632 216H552V136C552 131.594 548.406 128 544 128S536 131.594 536 136V216H456C451.594 216 448 219.594 448 224S451.594 232 456 232H536V312C536 316.406 539.594 320 544 320S552 316.406 552 312V232H632C636.406 232 640 228.406 640 224S636.406 216 632 216Z"/></svg>

<svg xmlns="http://www.w3.org/2000/svg" viewBox="0 0 640 512"><!--! Font Awesome Pro 6.0.0-alpha3 by @fontawesome - https://fontawesome.com License - https://fontawesome.com/license (Commercial License) --><path d="M224 256c70.7 0 128-57.31 128-128S294.7 0 224 0C153.3 0 96 57.31 96 128S153.3 256 224 256zM224 16c61.76 0 112 50.24 112 112S285.8 240 224 240S112 189.8 112 128S162.2 16 224 16zM274.7 304H173.3C77.61 304 0 381.6 0 477.3C0 496.5 15.52 512 34.66 512h378.7C432.5 512 448 496.5 448 477.3C448 381.6 370.4 304 274.7 304zM413.3 496H34.67C24.37 496 16 487.6 16 477.3C16 390.6 86.58 320 173.3 320h101.3C361.4 320 432 390.6 432 477.3C432 487.6 423.6 496 413.3 496zM632 216h-80v-80C552 131.6 548.4 128 544 128s-8 3.594-8 8v80h-80C451.6 216 448 219.6 448 224s3.594 8 8 8h80v80C536 316.4 539.6 320 544 320s8-3.594 8-8v-80h80C636.4 232 640 228.4 640 224S636.4 216 632 216z"/></svg>
